SVG_Azure_Grouped/Compute/Virtual Machine Windows.svg

<?xml version="1.0" encoding="UTF-8" standalone="no"?>
<!-- Generated by Microsoft Visio, SVG Export Virtual Machine Windows.svg Page-1 -->

<svg
   xmlns:dc="http://purl.org/dc/elements/1.1/"
   xmlns:cc="http://creativecommons.org/ns#"
   xmlns:rdf="http://www.w3.org/1999/02/22-rdf-syntax-ns#"
   xmlns:svg="http://www.w3.org/2000/svg"
   xmlns="http://www.w3.org/2000/svg"
   xmlns:sodipodi="http://sodipodi.sourceforge.net/DTD/sodipodi-0.dtd"
   xmlns:inkscape="http://www.inkscape.org/namespaces/inkscape"
   width="0.78736138in"
   height="0.70868915in"
   viewBox="0 0 56.689928 51.025603"
   xml:space="preserve"
   class="st5"
   version="1.1"
   id="svg60"
   sodipodi:docname="Virtual Machine Windows.svg"
   style="font-size:12px;overflow:visible;color-interpolation-filters:sRGB;fill:none;fill-rule:evenodd;stroke-linecap:square;stroke-miterlimit:3"
   inkscape:version="0.92.5 (2060ec1f9f, 2020-04-08)"><metadata
   id="metadata64"><rdf:RDF><cc:Work
       rdf:about=""><dc:format>image/svg+xml</dc:format><dc:type
         rdf:resource="http://purl.org/dc/dcmitype/StillImage" /></cc:Work></rdf:RDF></metadata><sodipodi:namedview
   pagecolor="#ffffff"
   bordercolor="#666666"
   borderopacity="1"
   objecttolerance="10"
   gridtolerance="10"
   guidetolerance="10"
   inkscape:pageopacity="0"
   inkscape:pageshadow="2"
   inkscape:window-width="640"
   inkscape:window-height="480"
   id="namedview62"
   showgrid="false"
   inkscape:zoom="1.4869072"
   inkscape:cx="37.795348"
   inkscape:cy="34.006413"
   inkscape:window-x="0"
   inkscape:window-y="0"
   inkscape:window-maximized="0"
   inkscape:current-layer="svg60" />
	<style
   type="text/css"
   id="style2">
	<![CDATA[
		.st1 {fill:url(#grad0-6);stroke:none;stroke-linecap:butt;stroke-width:34}
		.st2 {fill:url(#grad0-10);stroke:none;stroke-linecap:butt;stroke-width:34}
		.st3 {fill:#804998;fill-opacity:0.2;stroke:none;stroke-linecap:butt;stroke-width:14.0489}
		.st4 {fill:#ffffff;fill-opacity:0.8;stroke:none;stroke-linecap:butt;stroke-width:14.0489}
		.st5 {fill:none;fill-rule:evenodd;font-size:12px;overflow:visible;stroke-linecap:square;stroke-miterlimit:3}
	]]>
	</style>

	<defs
   id="Patterns_And_Gradients">
		<linearGradient
   id="grad0-6"
   x1="0"
   y1="102.02082"
   x2="45.687261"
   y2="102.02082"
   gradientTransform="scale(1.2408273,0.80591393)"
   gradientUnits="userSpaceOnUse">
			<stop
   offset="0"
   stop-color="#0078d4"
   stop-opacity="1"
   id="stop4" />
			<stop
   offset="0.82"
   stop-color="#5ea0ef"
   stop-opacity="1"
   id="stop6" />
		</linearGradient>
		<linearGradient
   id="grad0-10"
   x1="-5.1155188e-05"
   y1="148.06968"
   x2="20.071208"
   y2="148.06968"
   gradientTransform="scale(1.4124743,0.7079775)"
   gradientUnits="userSpaceOnUse">
			<stop
   offset="0.15"
   stop-color="#cccccc"
   stop-opacity="1"
   id="stop9" />
			<stop
   offset="1"
   stop-color="#707070"
   stop-opacity="1"
   id="stop11" />
		</linearGradient>
	</defs>
	<g
   id="g58"
   transform="translate(-34.000079,-33.9987)">
		<title
   id="title15">Page-1</title>
		<g
   id="group10862-1"
   transform="translate(34,-34.0157)">
			<title
   id="title17">Virtual Machine Windows.10862</title>
			<g
   id="group10863-2">
				<title
   id="title19">g16</title>
				<g
   id="shape10864-3"
   transform="translate(0,-14.2056)">
					<title
   id="title21">rect2</title>
					<path
   d="m 0,117.2 a 1.88981,1.84094 -180 0 0 1.89,1.84 H 54.8 a 1.88981,1.84094 -180 0 0 1.89,-1.84 V 84.06 A 1.88981,1.84094 -180 0 0 54.8,82.22 H 1.89 A 1.88981,1.84094 -180 0 0 0,84.06 Z"
   class="st1"
   id="path23"
   inkscape:connector-curvature="0"
   style="fill:url(#grad0-6);stroke:none;stroke-width:34;stroke-linecap:butt" />
				</g>
				<g
   id="shape10865-7"
   transform="translate(14.1732)">
					<title
   id="title26">path14</title>
					<path
   d="m 25.54,115.97 c -5.6,-0.86 -5.82,-4.79 -5.82,-11.14 H 8.6 c 0,6.35 -0.19,10.28 -5.8,11.14 A 3.14961,3.06817 -180 0 0 0,119.04 h 28.35 a 3.14961,3.06817 -180 0 0 -2.81,-3.07 z"
   class="st2"
   id="path28"
   inkscape:connector-curvature="0"
   style="fill:url(#grad0-10);stroke:none;stroke-width:34;stroke-linecap:butt" />
				</g>
				<g
   id="shape10866-11"
   transform="translate(14.2042,-20.5365)">
					<title
   id="title31">path10</title>
					<path
   d="M 26.59,119.04 1.07,117.03 C 0.47,116.99 0,116.49 0,115.9 V 96.82 c 0,-0.59 0.47,-1.09 1.07,-1.13 0,0 25.53,-2.01 25.53,-2.01 0.74,0 1.25,0.51 1.25,1.14 v 23.08 c 0,0.31 -0.12,0.59 -0.34,0.81 -0.22,0.21 -0.51,0.33 -0.82,0.33 z"
   class="st3"
   id="path33"
   inkscape:connector-curvature="0"
   style="fill:#804998;fill-opacity:0.2;stroke:none;stroke-width:14.04889965;stroke-linecap:butt" />
				</g>
				<g
   id="shape10867-13"
   transform="translate(28.1308,-34.1029)">
					<title
   id="title36">polygon12</title>
					<path
   d="M 0,119.04 H 12.76 V 108.38 L 0,109.38 Z"
   class="st4"
   id="path38"
   inkscape:connector-curvature="0"
   style="fill:#ffffff;fill-opacity:0.8;stroke:none;stroke-width:14.04889965;stroke-linecap:butt" />
				</g>
				<g
   id="shape10868-15"
   transform="translate(15.3703,-34.1029)">
					<title
   id="title41">polygon14</title>
					<path
   d="m 0,119.04 h 10.94 v -9.51 L 0,110.39 Z"
   class="st4"
   id="path43"
   inkscape:connector-curvature="0"
   style="fill:#ffffff;fill-opacity:0.8;stroke:none;stroke-width:14.04889965;stroke-linecap:butt" />
				</g>
				<g
   id="shape10869-17"
   transform="translate(28.1308,-21.6737)">
					<title
   id="title46">polygon16</title>
					<path
   d="m 0,108.39 h 12.76 v 10.65 L 0,118.04 Z"
   class="st4"
   id="path48"
   inkscape:connector-curvature="0"
   style="fill:#ffffff;fill-opacity:0.8;stroke:none;stroke-width:14.04889965;stroke-linecap:butt" />
				</g>
				<g
   id="shape10870-19"
   transform="translate(15.3703,-22.8172)">
					<title
   id="title51">polygon18</title>
					<path
   d="m 0,109.53 h 10.94 v 9.51 L 0,118.18 Z"
   class="st4"
   id="path53"
   inkscape:connector-curvature="0"
   style="fill:#ffffff;fill-opacity:0.8;stroke:none;stroke-width:14.04889965;stroke-linecap:butt" />
				</g>
			</g>
		</g>
	</g>
</svg>

<?xml version="1.0" encoding="UTF-8" standalone="no"?>
<!DOCTYPE svg PUBLIC "-//W3C//DTD SVG 1.1//EN" "http://www.w3.org/Graphics/SVG/1.1/DTD/svg11.dtd">
<!-- Generated by Microsoft Visio, SVG Export Virtual Machine Windows.svg Page-1 -->
<svg xmlns="http://www.w3.org/2000/svg" xmlns:xlink="http://www.w3.org/1999/xlink" xmlns:ev="http://www.w3.org/2001/xml-events"
		width="1.73185in" height="1.65332in" viewBox="0 0 124.693 119.039" xml:space="preserve" color-interpolation-filters="sRGB"
		class="st5">
	<style type="text/css">
	<![CDATA[
		.st1 {fill:url(#grad0-6);stroke:none;stroke-linecap:butt;stroke-width:34}
		.st2 {fill:url(#grad0-10);stroke:none;stroke-linecap:butt;stroke-width:34}
		.st3 {fill:#804998;fill-opacity:0.2;stroke:none;stroke-linecap:butt;stroke-width:14.0489}
		.st4 {fill:#ffffff;fill-opacity:0.8;stroke:none;stroke-linecap:butt;stroke-width:14.0489}
		.st5 {fill:none;fill-rule:evenodd;font-size:12px;overflow:visible;stroke-linecap:square;stroke-miterlimit:3}
	]]>
	</style>

	<defs id="Patterns_And_Gradients">
		<linearGradient id="grad0-6" x1="0" y1="0" x2="1" y2="0" gradientTransform="rotate(-90 0.5 0.5)">
			<stop offset="0" stop-color="#0078d4" stop-opacity="1"/>
			<stop offset="0.82" stop-color="#5ea0ef" stop-opacity="1"/>
		</linearGradient>
		<linearGradient id="grad0-10" x1="0" y1="0" x2="1" y2="0" gradientTransform="rotate(-90 0.5 0.5)">
			<stop offset="0.15" stop-color="#cccccc" stop-opacity="1"/>
			<stop offset="1" stop-color="#707070" stop-opacity="1"/>
		</linearGradient>
	</defs>
	<g>
		<title>Page-1</title>
		<g id="group10624-1" transform="translate(34,-34.0157)">
			<title>Virtual Machine Windows.10624</title>
			<g id="group10625-2">
				<title>g16</title>
				<g id="shape10626-3" transform="translate(0,-14.2056)">
					<title>rect2</title>
					<path d="M0 117.2 A1.88981 1.84094 -180 0 0 1.89 119.04 L54.8 119.04 A1.88981 1.84094 -180 0 0 56.69 117.2 L56.69
								 84.06 A1.88981 1.84094 -180 0 0 54.8 82.22 L1.89 82.22 A1.88981 1.84094 -180 0 0 0 84.06 L0 117.2
								 Z" class="st1"/>
				</g>
				<g id="shape10627-7" transform="translate(14.1732,0)">
					<title>path14</title>
					<path d="M25.54 115.97 C19.94 115.11 19.72 111.18 19.72 104.83 L8.6 104.83 C8.6 111.18 8.41 115.11 2.8 115.97
								 A3.14961 3.06817 -180 0 0 0 119.04 L28.35 119.04 A3.14961 3.06817 -180 0 0 25.54 115.97 Z"
							class="st2"/>
				</g>
				<g id="shape10628-11" transform="translate(14.2042,-20.5365)">
					<title>path10</title>
					<path d="M26.59 119.04 L1.07 117.03 C0.47 116.99 0 116.49 0 115.9 L0 96.82 C0 96.23 0.47 95.73 1.07 95.69 C1.07
								 95.69 26.6 93.68 26.6 93.68 C27.34 93.68 27.85 94.19 27.85 94.82 L27.85 117.9 C27.85 118.21 27.73
								 118.49 27.51 118.71 C27.29 118.92 27 119.04 26.69 119.04 L26.59 119.04 Z" class="st3"/>
				</g>
				<g id="shape10629-13" transform="translate(28.1308,-34.1029)">
					<title>polygon12</title>
					<path d="M0 119.04 L12.76 119.04 L12.76 108.38 L0 109.38 L0 119.04 Z" class="st4"/>
				</g>
				<g id="shape10630-15" transform="translate(15.3703,-34.1029)">
					<title>polygon14</title>
					<path d="M0 119.04 L10.94 119.04 L10.94 109.53 L0 110.39 L0 119.04 Z" class="st4"/>
				</g>
				<g id="shape10631-17" transform="translate(28.1308,-21.6737)">
					<title>polygon16</title>
					<path d="M0 108.39 L12.76 108.39 L12.76 119.04 L0 118.04 L0 108.39 Z" class="st4"/>
				</g>
				<g id="shape10632-19" transform="translate(15.3703,-22.8172)">
					<title>polygon18</title>
					<path d="M0 109.53 L10.94 109.53 L10.94 119.04 L0 118.18 L0 109.53 Z" class="st4"/>
				</g>
			</g>
		</g>
	</g>
</svg>
